src/topics/icons/spring.svg

<svg height="254" preserveAspectRatio="xMidYMid" viewBox="0 0 256 254" width="256" xmlns="http://www.w3.org/2000/svg"><g fill="#6db33f"><path d="m244.896373 54.5668792-170.2678905-52.95679649c-8.2318443-2.55992278-17.079284 2.02817048-19.6592063 10.19620209l-53.37052133 168.9479842c-2.57992219 8.169021 2.04401556 16.946887 10.27585993 19.50681l170.2688872 52.956796c8.231845 2.559923 17.078288-2.02817 19.65821-10.196202l53.370522-168.948973c2.580918-8.1680316-2.044016-16.945898-10.275861-19.5058208zm-163.2981162 125.9689568c0 7.218192-5.9517509 13.123805-13.2263346 13.123805h-.0488093c-7.2735876 0-13.2253386-5.905613-13.2253386-13.123805v-67.246898c0-7.218192 5.951751-13.122817 13.2253386-13.122817h.0488093c7.2745837 0 13.2263346 5.904625 13.2263346 13.122817zm-13.2502413-93.2909001c-7.3482956 0-13.3050271-5.9105553-13.3050271-13.2008991 0-7.2913322 5.9567315-13.2018875 13.3050271-13.2018875 7.3472997 0 13.3040312 5.9105553 13.3040312 13.2018875 0 7.2903438-5.9567315 13.2008991-13.3040312 13.2008991zm84.2628485 106.3712161c-33.116639 0-59.9169496-27.195474-59.9169496-60.055393 0-32.860909 26.8471286-59.4989312 59.9647626-59.4989312 17.055378 0 32.448249 7.0649915 43.3666 18.4077227l6.40498-11.2448808c6.568342 17.5834078 10.845634 38.1240703 10.845634 52.2204483 0 32.85992-27.547393 60.171034-60.665027 60.171034z"/><path d="m129.955362 174.318881c6.43586-2.002473 13.297058-4.110702 19.035642-5.949103 22.660483-7.260692 42.140389-25.539924 47.290273-48.500158-4.098989 10.801095-20.834615 31.900196-47.044234 40.306429-8.409152 2.645912-17.132078 4.321228-25.745432 6.295038-1.106677.254015-2.623751-.028663-3.595954-.628614-5.520435-3.405983-8.494816-9.499389-8.963984-15.647158-1.265058-16.541647 10.057712-30.041039 26.888965-33.535977 7.068389-1.468744 14.345961-1.086237 21.566755-1.853226 19.070506-1.9916 36.996483-15.5404113 42.41133-26.8663399 0 0 .972203 2.2070685 1.181386 2.8574273 4.093011 12.7225196 7.356264 25.6140536 7.674024 39.0600726.17133 7.262669-.630537 14.411674-3.218428 21.273057-5.202678 13.790966-15.824188 20.783806-30.01376 22.42947-8.295595.961701-16.738615.750186-25.117882.910305-6.800436.129479-14.670694-.151223-22.348701-.151223"/><path d="m121.522303 175.012729c0 2.804054-2.290054 5.076356-5.116015 5.076356s-5.116015-2.272302-5.116015-5.076356c0-2.804055 2.290054-5.076357 5.116015-5.076357s5.116015 2.272302 5.116015 5.076357"/></g></svg>

<?xml version="1.0" encoding="UTF-8" standalone="no"?>
<svg width="256px" height="254px" viewBox="0 0 256 254" version="1.1" xmlns="http://www.w3.org/2000/svg" xmlns:xlink="http://www.w3.org/1999/xlink" preserveAspectRatio="xMidYMid">
	<g fill="#6DB33F">
		<g>
			<path d="M244.896373,54.5668792 L74.6284825,1.61008271 C66.3966382,-0.949840074 57.5491985,3.63825319 54.9692762,11.8062848 L1.59875487,180.754269 C-0.981167315,188.92329 3.64277043,197.701156 11.8746148,200.261079 L182.143502,253.217875 C190.375347,255.777798 199.22179,251.189705 201.801712,243.021673 L255.172234,74.0727 C257.753152,65.9046684 253.128218,57.126802 244.896373,54.5668792 L244.896373,54.5668792 L244.896373,54.5668792 Z M81.5982568,180.535836 C81.5982568,187.754028 75.6465059,193.659641 68.3719222,193.659641 L68.3231129,193.659641 C61.0495253,193.659641 55.0977743,187.754028 55.0977743,180.535836 L55.0977743,113.288938 C55.0977743,106.070746 61.0495253,100.166121 68.3231129,100.166121 L68.3719222,100.166121 C75.6465059,100.166121 81.5982568,106.070746 81.5982568,113.288938 L81.5982568,180.535836 L81.5982568,180.535836 Z M68.3480155,87.2449359 C60.9997199,87.2449359 55.0429884,81.3343806 55.0429884,74.0440368 C55.0429884,66.7527046 60.9997199,60.8421493 68.3480155,60.8421493 C75.6953152,60.8421493 81.6520467,66.7527046 81.6520467,74.0440368 C81.6520467,81.3343806 75.6953152,87.2449359 68.3480155,87.2449359 L68.3480155,87.2449359 L68.3480155,87.2449359 Z M152.610864,193.616152 C119.494225,193.616152 92.6939144,166.420678 92.6939144,133.560759 C92.6939144,100.69985 119.541043,74.0618278 152.658677,74.0618278 C169.714055,74.0618278 185.106926,81.1268193 196.025277,92.4695505 L202.430257,81.2246697 C208.998599,98.8080775 213.275891,119.34874 213.275891,133.445118 C213.275891,166.305038 185.728498,193.616152 152.610864,193.616152 L152.610864,193.616152 L152.610864,193.616152 Z"></path>
			<path d="M129.955362,174.318881 C136.391222,172.316408 143.25242,170.208179 148.991004,168.369778 C171.651487,161.109086 191.131393,142.829854 196.281277,119.86962 C192.182288,130.670715 175.446662,151.769816 149.237043,160.176049 C140.827891,162.821961 132.104965,164.497277 123.491611,166.471087 C122.384934,166.725102 120.86786,166.442424 119.895657,165.842473 C114.375222,162.43649 111.400841,156.343084 110.931673,150.195315 C109.666615,133.653668 120.989385,120.154276 137.820638,116.659338 C144.889027,115.190594 152.166599,115.573101 159.387393,114.806112 C178.457899,112.814512 196.383876,99.2657007 201.798723,87.9397721 C201.798723,87.9397721 202.770926,90.1468406 202.980109,90.7971994 C207.07312,103.519719 210.336373,116.411253 210.654133,129.857272 C210.825463,137.119941 210.023596,144.268946 207.435705,151.130329 C202.233027,164.921295 191.611517,171.914135 177.421945,173.559799 C169.12635,174.5215 160.68333,174.309985 152.304063,174.470104 C145.503627,174.599583 137.633369,174.318881 129.955362,174.318881"></path>
			<path d="M121.522303,175.012729 C121.522303,177.816783 119.232249,180.089085 116.406288,180.089085 C113.580327,180.089085 111.290273,177.816783 111.290273,175.012729 C111.290273,172.208674 113.580327,169.936372 116.406288,169.936372 C119.232249,169.936372 121.522303,172.208674 121.522303,175.012729"></path>
		</g>
	</g>
</svg>
